X:79
T:Pretty Bettsey
M:6/8
L:1/8
B:Thompson's Compleat Collection of 200 Favourite Country Dances, vol. 3 (London, 1773)
Z:Transcribed and edited by Flynn Titford-Mock, 2007
Z:abc's:AK/Fiddler's Companion
K:F
cAc (f/g/a)c | BGF (E/F/G)C | cAE Fag | fed c3::cga bgc | afc "tr"g3 |
Bdg gfe | dcB {B}A3 | cA_E (D/E/F)B, | dBF (=E/F/G)C | FCA, B,dc | BAG [A,3F3] :|

